X:1
T:Pennies op die Spoor
T:Pennies op die Spoor
T:Woorde en Musiek:  Stef Kruger
T:2
C:Stef Kruger
Z:All Rights Reserved
L:1/8
Q:1/4=120
M:4/4
K:G
V:1 treble nm="[Unnamed (treble staff)]"
%%MIDI program 0
%%MIDI control 7 100
%%MIDI control 10 64
V:1
 z4 z2 DD |"G" BBBB BBAG | D2 z2 z2 DD |"Am7" cccc- ccBA- | A E2 z z2 DD |"D7" c2 z c c2 z D | %6
w: Al die|boom- pies langs die pad die ken ek|wel. Al die|goe­ters * word daar * van my ver-|* tel, al die|spook- sto- ries en|
 cc z2 z2 z D |"G" BBBB- B A2 G | z4 z D DD | B2 BB BBAG- | G D2 z z2 DD |"Am7" c c2 c B2 AE- | %12
w: ding- e en|hus- se met lang * o- re.|Die pers- ke|boom se tak- * ke hang al|swaar. * Langs die|spoor- lyn het ek ge- waar|
 E2 z2 z2 z D |"D7" cccc c2 cc | A2 z2 z2 z D |"G" B B2 B- B A2 B- | B2 z2 G2 G2 |: %17
w: * 'n|kie- wiet in die lang gras wat|raas, die|win- ter was * te lank.|* En die|
"C" E E2 G- G G2 c- | c2 z2 z d e2 |"G" d3 B- B D2 G- | G2 z2 z2 EE |"D" D D2 F- F F2 A | z8 | %23
w: pen- nies op * die spoor|* het ek|klein- tyd * ver- loor,|* maar die|ryk- dom in * my hart,||
"G" G G2 G G A2 (A | B4) z2 GG |"C" E E2 G- G G2 c- | c2 z2 z d e2 |"G" d3 B- B D2 G- | %28
w: snoe- sig toe- * ge- maak.|* En die|pen­nies * op * die spoor|* het ek|klein- tyd * ver- loor,|
 G2 z2 z2 EE |"D" D D2 F- F F2 A | z8 |"G" G G2 z"D" F F2 G- |1"G" G2 z2 z D DD || B B2 B- BBAG | %34
w: * maar die|ryk- dom in * my hart,||snoe­sig- * toe- ge- maak.|* Die maan hou|bak­hand- * wag * oor die Ka-|
 D2 z2 z4 |"Am7" c c2 c- ccBA- | A E2 z z2 z D |"D7" cccc- c c2 c | c A2 z z2 z c | %39
w: roo.|Klein- tyd sto- * ries wat ek|* glo, die|pad- pre- di- kant * langs die|pad wys die|
"G" B2 BB B A2 B- | B2 z2 z4 | BBBB- BBAG- | G D2 z z2 z D |"Am7" c2 z2 z2 BA | E2 z2 z2 z E | %45
w: huis is nie * meer ver.||Klip­pe- * en rant- * jies, af­ge- *|* ets; stil|films, flits ver-|by. En|
"D7" cccc c c2 z | cccc- cccc |"G" B B2 z z4 | G4 G2 G2 :|2"G" G4 z4 |] %50
w: Ju- pi- ter is net *|spel- de- prik gaat- * tjie in die|he- mel.|* En die|maak|

